X: 213
T: The Drummer
R: reel
M: C
L: 1/8
Z: 2012 John Chambers <jc:trillian.mit.edu>
B: J. Anderson "Budget of Strathspeys, Reels and Country Dances" (Early 1800s) p.21 #3
F: http://imslp.org/wiki/Anderson%27s_Budget_of_Strathspeys,_Reels_and_Country_Dances_(Various)
K: Am
|:\
ABcG E2(EF) | G2(GB) dBGB | ABcG E2(Eg) | edcB A2(AB) :|
c2(ce) d2(de) | c2(ce) dBGB | c2(ce) d2(df) | edcB A2(AB) ||
(cB).c.e (dc).d.e | (ce)(ge) (dB)(GB) | (cB).c.e (de).f.a | edcB A2A2 |]

%%sep 2 1 500
%%sep 1 1 500

